**harm	**harte	**silbe	**silbe	**silbe	**rhyme	**timestamp	**phrase	**leadinstrument	**kern
*M4/4	*M4/4	*	*	*	*	*	*	*	*
*	*	*	*	*	*	*	*	*	*
*	*	*	*	*	*	*	*	*	*
*f#:	*f#:	*	*	*	*	*f#:	*f#:	*f#:	*f#:
*	*	*	*	*	*	*	*	*	*
*	*	*	*	*	*	*	*	*	*
1r;	N	.	.	.	.	0	.	r	1r;
=1	=1	=1	=1	=1	=1	=1	=1	=1	=1
*>Letter>D	*>Letter>D	*>Letter>D	*>Letter>D	*>Letter>D	*>Letter>D	*>Letter>D	*>Letter>D	*>Letter>D	*>Letter>D
*>Label>Intro	*>Label>Intro	*>Label>Intro	*>Label>Intro	*>Label>Intro	*>Label>Intro	*>Label>Intro	*>Label>Intro	*>Label>Intro	*>Label>Intro
1i	F#:5	.	.	.	.	0.306	newline	r	1F# 1a 1cc#
=2	=2	=2	=2	=2	=2	=2	=2	=2	=2
1i	F#:5	.	.	.	.	2.069	.	r	1F# 1a 1cc#
=3	=3	=3	=3	=3	=3	=3	=3	=3	=3
1i	F#:5	.	.	.	.	3.832	.	r	1F# 1a 1cc#
=4	=4	=4	=4	=4	=4	=4	=4	=4	=4
1i	F#:5	.	.	.	.	5.594	.	r	1F# 1a 1cc#
=5	=5	=5	=5	=5	=5	=5	=5	=5	=5
1-VIIe	E:maj/2	.	.	.	.	7.357	newline	r	1E 1g# 1b
=6	=6	=6	=6	=6	=6	=6	=6	=6	=6
1IVc	B:maj/5	.	.	.	.	9.119	.	r	1b 1dd# 1F#
=7	=7	=7	=7	=7	=7	=7	=7	=7	=7
1i	F#:5	.	.	.	.	10.88	.	r	1F# 1a 1cc#
=8	=8	=8	=8	=8	=8	=8	=8	=8	=8
1i	F#:5	.	.	.	.	12.642	.	r	1F# 1a 1cc#
=9	=9	=9	=9	=9	=9	=9	=9	=9	=9
1-VIIe	E:maj/2	.	.	.	.	14.404	newline	r	1E 1g# 1b
=10	=10	=10	=10	=10	=10	=10	=10	=10	=10
1IVc	B:maj/5	.	.	.	.	16.145	.	r	1b 1dd# 1F#
=11	=11	=11	=11	=11	=11	=11	=11	=11	=11
1i	F#:5	.	.	.	.	17.886	.	r	1F# 1a 1cc#
=12	=12	=12	=12	=12	=12	=12	=12	=12	=12
1i	F#:5	.	.	.	.	19.628	.	r	1F# 1a 1cc#
.	.	.	.	.	.	.	.	.	.
.	.	One	.	.	.	.	.	.	.
=13	=13	=13	=13	=13	=13	=13	=13	=13	=13
*>Letter>A	*>Letter>A	*>Letter>A	*>Letter>A	*>Letter>A	*>Letter>A	*>Letter>A	*>Letter>A	*>Letter>A	*>Letter>A
*>Label>Verse	*>Label>Verse	*>Label>Verse	*>Label>Verse	*>Label>Verse	*>Label>Verse	*>Label>Verse	*>Label>Verse	*>Label>Verse	*>Label>Verse
1i	F#:5	_	.	.	.	21.369	newline	voice	1F# 1a 1cc#
.	.	_	.	.	.	.	.	.	.
.	.	life	.	.	A	.	.	.	.
.	.	.	.	.	.	.	.	.	.
.	.	I'm	.	.	.	.	.	.	.
=14	=14	=14	=14	=14	=14	=14	=14	=14	=14
1i	F#:5	_	.	.	.	23.112	.	voice	1F# 1a 1cc#
.	.	go-	.	.	.	.	.	.	.
.	.	-nna	.	.	.	.	.	.	.
.	.	live	.	.	.	.	.	.	.
.	.	it	.	.	(b	.	.	.	.
.	.	up	.	.	B)	.	.	.	.
=15	=15	=15	=15	=15	=15	=15	=15	=15	=15
1i	F#:5	.	.	.	.	24.854	.	voice	1F# 1a 1cc#
=16	=16	=16	=16	=16	=16	=16	=16	=16	=16
1i	F#:5	.	.	.	.	26.597	.	voice	1F# 1a 1cc#
.	.	.	.	.	.	.	.	.	.
.	.	I'm	.	.	.	.	.	.	.
=17	=17	=17	=17	=17	=17	=17	=17	=17	=17
1i	F#:5	ta-	.	.	.	28.339	newline	voice	1F# 1a 1cc#
.	.	-kin'	.	.	.	.	.	.	.
.	.	flight	.	.	A	.	.	.	.
.	.	I	.	.	.	.	.	.	.
.	.	said	.	.	.	.	.	.	.
.	.	I'll	.	.	.	.	.	.	.
=18	=18	=18	=18	=18	=18	=18	=18	=18	=18
1i	F#:5	_	.	.	.	30.107	.	voice	1F# 1a 1cc#
.	.	ne-	.	.	.	.	.	.	.
.	.	-ver	.	.	.	.	.	.	.
.	.	get	.	.	.	.	.	.	.
.	.	e-	.	.	(b	.	.	.	.
.	.	-nough	.	.	B)	.	.	.	.
=19	=19	=19	=19	=19	=19	=19	=19	=19	=19
1i	F#:5	.	.	.	.	31.874	.	voice	1F# 1a 1cc#
=20	=20	=20	=20	=20	=20	=20	=20	=20	=20
1i	F#:5	.	.	.	.	33.642	.	voice	1F# 1a 1cc#
.	.	.	.	.	.	.	.	.	.
.	.	Stand	.	.	.	.	.	.	.
=21	=21	=21	=21	=21	=21	=21	=21	=21	=21
1i	F#:5	_	.	.	.	35.409	newline	voice	1F# 1a 1cc#
.	.	tall	.	.	C	.	.	.	.
.	.	.	.	.	.	.	.	.	.
.	.	I'm	.	.	.	.	.	.	.
=22	=22	=22	=22	=22	=22	=22	=22	=22	=22
1i	F#:5	_	.	.	.	37.155	.	voice	1F# 1a 1cc#
.	.	a	.	.	.	.	.	.	.
.	.	young	.	.	.	.	.	.	.
.	.	and	.	.	.	.	.	.	.
.	.	kind-	.	.	.	.	.	.	.
.	.	-a	.	.	.	.	.	.	.
.	.	proud	.	.	D	.	.	.	.
=23	=23	=23	=23	=23	=23	=23	=23	=23	=23
1i	F#:5	_	.	.	.	38.901	.	voice	1F# 1a 1cc#
.	.	.	.	.	.	.	.	.	.
.	.	.	.	.	.	.	.	.	.
=24	=24	=24	=24	=24	=24	=24	=24	=24	=24
1i	F#:5	.	.	.	.	40.646	.	voice	1F# 1a 1cc#
.	.	.	.	.	.	.	.	.	.
.	.	.	.	.	.	.	.	.	.
.	.	I'm	.	.	.	.	.	.	.
=25	=25	=25	=25	=25	=25	=25	=25	=25	=25
1i	F#:5	on	.	.	.	42.392	newline	voice	1F# 1a 1cc#
.	.	the	.	.	.	.	.	.	.
.	.	top	.	.	C	.	.	.	.
.	.	.	.	.	.	.	.	.	.
.	.	as	.	.	.	.	.	.	.
.	.	long	.	.	.	.	.	.	.
=26	=26	=26	=26	=26	=26	=26	=26	=26	=26
1i	F#:5	_	.	.	.	44.144	.	voice	1F# 1a 1cc#
.	.	as	.	.	.	.	.	.	.
.	.	the	.	.	.	.	.	.	.
.	.	mu-	.	.	.	.	.	.	.
.	.	-sics	.	.	.	.	.	.	.
.	.	loud	.	.	D	.	.	.	.
=27	=27	=27	=27	=27	=27	=27	=27	=27	=27
1i	F#:5	_	.	.	.	45.897	.	voice	1F# 1a 1cc#
.	.	_	.	.	.	.	.	.	.
.	.	_	.	.	.	.	.	.	.
.	.	.	.	.	.	.	.	.	.
=28	=28	=28	=28	=28	=28	=28	=28	=28	=28
1i	F#:5	.	.	.	.	47.649	.	voice	1F# 1a 1cc#
=29	=29	=29	=29	=29	=29	=29	=29	=29	=29
*>Letter>B	*>Letter>B	*>Letter>B	*>Letter>B	*>Letter>B	*>Letter>B	*>Letter>B	*>Letter>B	*>Letter>B	*>Letter>B
*>Label>Prechorus	*>Label>Prechorus	*>Label>Prechorus	*>Label>Prechorus	*>Label>Prechorus	*>Label>Prechorus	*>Label>Prechorus	*>Label>Prechorus	*>Label>Prechorus	*>Label>Prechorus
1I	F#:maj	If	.	.	.	49.402	newline	voice	1F# 1a# 1cc#
.	.	you	.	.	.	.	.	.	.
.	.	think	.	.	.	.	.	.	.
.	.	I'll	.	.	.	.	.	.	.
.	.	sit	.	.	.	.	.	.	.
.	.	a-	.	.	.	.	.	.	.
.	.	-round	.	.	.	.	.	.	.
.	.	as	.	.	.	.	.	.	.
=30	=30	=30	=30	=30	=30	=30	=30	=30	=30
1-VIb	D:maj/3	_	.	.	.	51.15	.	voice	1d- 1F 1a-
.	.	the	.	.	.	.	.	.	.
.	.	world	.	.	.	.	.	.	.
.	.	goes	.	.	.	.	.	.	.
.	.	by	.	.	E	.	.	.	.
.	.	.	.	.	.	.	.	.	.
.	.	You're	.	.	.	.	.	.	.
=31	=31	=31	=31	=31	=31	=31	=31	=31	=31
1IVc	B:maj/5	think-	.	.	.	52.899	.	voice	1b 1dd# 1F#
.	.	-in'	.	.	.	.	.	.	.
.	.	like	.	.	.	.	.	.	.
.	.	a	.	.	.	.	.	.	.
.	.	fool	.	.	.	.	.	.	.
.	.	'cause	.	.	.	.	.	.	.
.	.	it's	.	.	.	.	.	.	.
.	.	_	.	.	.	.	.	.	.
.	.	a	.	.	.	.	.	.	.
.	.	case	.	.	.	.	.	.	.
=32	=32	=32	=32	=32	=32	=32	=32	=32	=32
1I	F#:maj	_	.	.	.	54.648	.	voice	1F# 1a# 1cc#
.	.	of	.	.	.	.	.	.	.
.	.	do	.	.	.	.	.	.	.
.	.	or	.	.	.	.	.	.	.
.	.	die	.	.	E	.	.	.	.
.	.	.	.	.	.	.	.	.	.
.	.	Out	.	.	.	.	.	.	.
=33	=33	=33	=33	=33	=33	=33	=33	=33	=33
1I	F#:maj	_	.	.	.	56.397	newline	voice	1F# 1a# 1cc#
.	.	there	.	.	.	.	.	.	.
.	.	is	.	.	.	.	.	.	.
.	.	a	.	.	.	.	.	.	.
.	.	for-	.	.	.	.	.	.	.
.	.	_	.	.	.	.	.	.	.
.	.	-tune	.	.	.	.	.	.	.
.	.	wai-	.	.	.	.	.	.	.
=34	=34	=34	=34	=34	=34	=34	=34	=34	=34
1-VIb	D:maj/3	_	.	.	.	58.145	.	voice	1d- 1F 1a-
.	.	-ting	.	.	.	.	.	.	.
.	.	to	.	.	.	.	.	.	.
.	.	be	.	.	.	.	.	.	.
.	.	had	.	.	F	.	.	.	.
.	.	.	.	.	.	.	.	.	.
.	.	You	.	.	.	.	.	.	.
=35	=35	=35	=35	=35	=35	=35	=35	=35	=35
1IVc	B:maj/5	think	.	.	.	59.894	.	voice	1b 1dd# 1F#
.	.	I'll	.	.	.	.	.	.	.
.	.	let	.	.	.	.	.	.	.
.	.	it	.	.	.	.	.	.	.
.	.	go	.	.	.	.	.	.	.
.	.	you're	.	.	.	.	.	.	.
.	.	mad	.	.	F	.	.	.	.
=36	=36	=36	=36	=36	=36	=36	=36	=36	=36
1v	C#:5	_	.	.	.	61.643	.	voice	1C# 1e 1g#
.	.	You	.	.	.	.	.	.	.
.	.	got	.	.	.	.	.	.	.
.	.	a-	.	.	.	.	.	.	.
.	.	-no-	.	.	.	.	.	.	.
.	.	-ther	.	.	.	.	.	.	.
.	.	thing	.	.	.	.	.	.	.
=37	=37	=37	=37	=37	=37	=37	=37	=37	=37
*>Letter>C	*>Letter>C	*>Letter>C	*>Letter>C	*>Letter>C	*>Letter>C	*>Letter>C	*>Letter>C	*>Letter>C	*>Letter>C
*>Label>Chorus	*>Label>Chorus	*>Label>Chorus	*>Label>Chorus	*>Label>Chorus	*>Label>Chorus	*>Label>Chorus	*>Label>Chorus	*>Label>Chorus	*>Label>Chorus
1i	F#:min	co-	.	.	.	63.392	newline	voice	1F# 1a 1cc#
.	.	-min'	.	.	.	.	.	.	.
.	.	.	.	.	.	.	.	.	.
.	.	.	.	.	.	.	.	.	.
=38	=38	=38	=38	=38	=38	=38	=38	=38	=38
2i	F#:min	.	.	.	.	65.119	.	voice	2F# 2a 2cc#
.	.	You	You	.	.	.	.	.	.
.	.	got	got	.	.	.	.	.	.
.	.	a-	a-	.	.	.	.	.	.
4-IIIg	A:5/6	-no-	-no-	.	.	65.983	.	voice	4A- 4cc 4ee-
.	.	-ther	-ther	.	.	.	.	.	.
4ivc	B:5/5	thing	thing	.	.	66.414	.	voice	4b 4dd 4F#
=39	=39	=39	=39	=39	=39	=39	=39	=39	=39
1i	F#:min	co-	co-	.	.	66.846	.	voice	1F# 1a 1cc#
.	.	-min'	-min'	.	.	.	.	.	.
.	.	.	.	.	.	.	.	.	.
.	.	.	.	.	.	.	.	.	.
=40	=40	=40	=40	=40	=40	=40	=40	=40	=40
2i	F#:min	.	.	.	.	68.573	.	voice	2F# 2a 2cc#
4-III	A:5	.	.	.	.	69.437	.	voice	4.A- 4.cc 4.ee-
4iv	B:5	.	.	.	.	69.869	.	voice	8B 8dd 8ff#
.	.	That's	.	.	.	.	.	.	.
=41	=41	=41	=41	=41	=41	=41	=41	=41	=41
*>Letter>A	*>Letter>A	*>Letter>A	*>Letter>A	*>Letter>A	*>Letter>A	*>Letter>A	*>Letter>A	*>Letter>A	*>Letter>A
*>Label>Verse	*>Label>Verse	*>Label>Verse	*>Label>Verse	*>Label>Verse	*>Label>Verse	*>Label>Verse	*>Label>Verse	*>Label>Verse	*>Label>Verse
1i	F#:5	_	.	.	.	70.301	newline	voice	1F# 1a 1cc#
.	.	right	.	.	.	.	.	.	.
.	.	_	.	.	.	.	.	.	.
.	.	_	.	.	.	.	.	.	.
.	.	here's	.	.	.	.	.	.	.
=42	=42	=42	=42	=42	=42	=42	=42	=42	=42
1i	F#:5	_	.	.	.	72.043	.	voice	1F# 1a 1cc#
.	.	where	.	.	.	.	.	.	.
.	.	the	.	.	.	.	.	.	.
.	.	tal-	.	.	.	.	.	.	.
.	.	-king	.	.	.	.	.	.	.
.	.	ends	.	.	G	.	.	.	.
=43	=43	=43	=43	=43	=43	=43	=43	=43	=43
1i	F#:5	.	.	.	.	73.785	.	voice	1F# 1a 1cc#
=44	=44	=44	=44	=44	=44	=44	=44	=44	=44
1i	F#:5	.	.	.	.	75.527	.	voice	1F# 1a 1cc#
.	.	.	.	.	.	.	.	.	.
.	.	.	.	.	.	.	.	.	.
.	.	Well	.	.	.	.	.	.	.
=45	=45	=45	=45	=45	=45	=45	=45	=45	=45
1i	F#:5	list-	.	.	.	77.27	newline	voice	1F# 1a 1cc#
.	.	-ten	.	.	.	.	.	.	.
.	.	this	.	.	.	.	.	.	.
.	.	a	.	.	.	.	.	.	.
.	.	night	.	.	.	.	.	.	.
.	.	.	.	.	.	.	.	.	.
.	.	they'll	.	.	.	.	.	.	.
=46	=46	=46	=46	=46	=46	=46	=46	=46	=46
1i	F#:5	be	.	.	.	79.009	.	voice	1F# 1a 1cc#
.	.	some	.	.	.	.	.	.	.
.	.	ac-	.	.	.	.	.	.	.
.	.	-tion	.	.	.	.	.	.	.
.	.	spent	.	.	G	.	.	.	.
=47	=47	=47	=47	=47	=47	=47	=47	=47	=47
1i	F#:5	.	.	.	.	80.748	.	voice	1F# 1a 1cc#
=48	=48	=48	=48	=48	=48	=48	=48	=48	=48
1i	F#:5	.	.	.	.	82.487	.	voice	1F# 1a 1cc#
.	.	.	.	.	.	.	.	.	.
.	.	.	.	.	.	.	.	.	.
.	.	Drive	.	.	.	.	.	.	.
.	.	_	.	.	.	.	.	.	.
=49	=49	=49	=49	=49	=49	=49	=49	=49	=49
1i	F#:5	_	.	.	.	84.226	newline	voice	1F# 1a 1cc#
.	.	hard	.	.	.	.	.	.	.
.	.	_	.	.	.	.	.	.	.
.	.	.	.	.	.	.	.	.	.
.	.	call-	.	.	.	.	.	.	.
=50	=50	=50	=50	=50	=50	=50	=50	=50	=50
1i	F#:5	_	.	.	.	85.979	.	voice	1F# 1a 1cc#
.	.	-in'	.	.	.	.	.	.	.
.	.	all	.	.	.	.	.	.	.
.	.	the	.	.	.	.	.	.	.
.	.	.	.	.	.	.	.	.	.
.	.	shots	.	.	H	.	.	.	.
.	.	.	.	.	.	.	.	.	.
.	.	uh	.	.	.	.	.	.	.
=51	=51	=51	=51	=51	=51	=51	=51	=51	=51
1i	F#:5	.	.	.	.	87.733	.	voice	1F# 1a 1cc#
=52	=52	=52	=52	=52	=52	=52	=52	=52	=52
1i	F#:5	.	.	.	.	89.487	.	voice	1F# 1a 1cc#
.	.	.	.	.	.	.	.	.	.
.	.	.	.	.	.	.	.	.	.
.	.	I	.	.	.	.	.	.	.
=53	=53	=53	=53	=53	=53	=53	=53	=53	=53
1i	F#:5	got	.	.	.	91.241	newline	voice	1F# 1a 1cc#
.	.	an	.	.	.	.	.	.	.
.	.	ace	.	.	.	.	.	.	.
.	.	car	.	.	.	.	.	.	.
.	.	com-	.	.	.	.	.	.	.
.	.	-in'	.	.	.	.	.	.	.
=54	=54	=54	=54	=54	=54	=54	=54	=54	=54
1i	F#:5	down	.	.	.	92.975	.	voice	1F# 1a 1cc#
.	.	on	.	.	.	.	.	.	.
.	.	the	.	.	.	.	.	.	.
.	.	rocks	.	.	H	.	.	.	.
.	.	_	.	.	.	.	.	.	.
.	.	_	.	.	.	.	.	.	.
=55	=55	=55	=55	=55	=55	=55	=55	=55	=55
1i	F#:5	_	.	.	.	94.71	.	voice	1F# 1a 1cc#
.	.	.	.	.	.	.	.	.	.
.	.	.	.	.	.	.	.	.	.
=56	=56	=56	=56	=56	=56	=56	=56	=56	=56
1i	F#:5	.	.	.	.	96.444	.	voice	1F# 1a 1cc#
=57	=57	=57	=57	=57	=57	=57	=57	=57	=57
*>Letter>B	*>Letter>B	*>Letter>B	*>Letter>B	*>Letter>B	*>Letter>B	*>Letter>B	*>Letter>B	*>Letter>B	*>Letter>B
*>Label>Prechorus	*>Label>Prechorus	*>Label>Prechorus	*>Label>Prechorus	*>Label>Prechorus	*>Label>Prechorus	*>Label>Prechorus	*>Label>Prechorus	*>Label>Prechorus	*>Label>Prechorus
1I	F#:maj	If	.	.	.	98.179	newline	voice	1F# 1a# 1cc#
.	.	you	.	.	.	.	.	.	.
.	.	think	.	.	.	.	.	.	.
.	.	I'll	.	.	.	.	.	.	.
.	.	sit	.	.	.	.	.	.	.
.	.	a-	.	.	.	.	.	.	.
.	.	-round	.	.	.	.	.	.	.
.	.	while	.	.	.	.	.	.	.
.	.	they	.	.	.	.	.	.	.
=58	=58	=58	=58	=58	=58	=58	=58	=58	=58
1-VIb	D:maj/3	chip	.	.	.	99.917	.	voice	1d- 1F 1a-
.	.	a-	.	.	.	.	.	.	.
.	.	-way	.	.	.	.	.	.	.
.	.	my	.	.	.	.	.	.	.
.	.	_	.	.	.	.	.	.	.
.	.	brain	.	.	I	.	.	.	.
.	.	.	.	.	.	.	.	.	.
.	.	Lis-	.	.	.	.	.	.	.
=59	=59	=59	=59	=59	=59	=59	=59	=59	=59
1IVc	B:maj/5	_	.	.	.	101.656	.	voice	1b 1dd# 1F#
.	.	-ten	.	.	.	.	.	.	.
.	.	I	.	.	.	.	.	.	.
.	.	ain't	.	.	.	.	.	.	.
.	.	foo-	.	.	.	.	.	.	.
.	.	-lin'	.	.	.	.	.	.	.
.	.	and	.	.	.	.	.	.	.
.	.	you	.	.	.	.	.	.	.
.	.	be-	.	.	.	.	.	.	.
.	.	-tter	.	.	.	.	.	.	.
=60	=60	=60	=60	=60	=60	=60	=60	=60	=60
1I	F#:maj	_	.	.	.	103.394	.	voice	1F# 1a# 1cc#
.	.	think	.	.	.	.	.	.	.
.	.	a-	.	.	.	.	.	.	.
.	.	-gain	.	.	I	.	.	.	.
.	.	.	.	.	.	.	.	.	.
.	.	Out	.	.	.	.	.	.	.
=61	=61	=61	=61	=61	=61	=61	=61	=61	=61
1I	F#:maj	_	.	.	.	105.133	newline	voice	1F# 1a# 1cc#
.	.	there	.	.	.	.	.	.	.
.	.	is	.	.	.	.	.	.	.
.	.	a	.	.	.	.	.	.	.
.	.	for-	.	.	.	.	.	.	.
.	.	_	.	.	.	.	.	.	.
.	.	-tune	.	.	.	.	.	.	.
.	.	wai-	.	.	.	.	.	.	.
=62	=62	=62	=62	=62	=62	=62	=62	=62	=62
1-VIb	D:maj/3	_	.	.	.	106.873	.	voice	1d- 1F 1a-
.	.	-ting	.	.	.	.	.	.	.
.	.	to	.	.	.	.	.	.	.
.	.	be	.	.	.	.	.	.	.
.	.	had	.	.	F	.	.	.	.
.	.	.	.	.	.	.	.	.	.
.	.	You	.	.	.	.	.	.	.
=63	=63	=63	=63	=63	=63	=63	=63	=63	=63
1IVc	B:maj/5	think	.	.	.	108.614	.	voice	1b 1dd# 1F#
.	.	I'll	.	.	.	.	.	.	.
.	.	let	.	.	.	.	.	.	.
.	.	it	.	.	.	.	.	.	.
.	.	go	.	.	.	.	.	.	.
.	.	you're	.	.	.	.	.	.	.
.	.	mad	.	.	F	.	.	.	.
=64	=64	=64	=64	=64	=64	=64	=64	=64	=64
1v	C#:5	_	.	.	.	110.354	.	voice	1C# 1e 1g#
.	.	You	.	.	.	.	.	.	.
.	.	got	.	.	.	.	.	.	.
.	.	a-	.	.	.	.	.	.	.
.	.	-no-	.	.	.	.	.	.	.
.	.	-ther	.	.	.	.	.	.	.
.	.	thing	.	.	.	.	.	.	.
=65	=65	=65	=65	=65	=65	=65	=65	=65	=65
*>Letter>C	*>Letter>C	*>Letter>C	*>Letter>C	*>Letter>C	*>Letter>C	*>Letter>C	*>Letter>C	*>Letter>C	*>Letter>C
*>Label>Chorus	*>Label>Chorus	*>Label>Chorus	*>Label>Chorus	*>Label>Chorus	*>Label>Chorus	*>Label>Chorus	*>Label>Chorus	*>Label>Chorus	*>Label>Chorus
1i	F#:min	co-	.	.	.	112.094	newline	voice	1F# 1a 1cc#
.	.	-min'	.	.	.	.	.	.	.
.	.	.	.	.	.	.	.	.	.
.	.	.	.	.	.	.	.	.	.
=66	=66	=66	=66	=66	=66	=66	=66	=66	=66
2i	F#:min	.	.	.	.	113.825	.	voice	2F# 2a 2cc#
.	.	You	You	.	.	.	.	.	.
.	.	got	got	.	.	.	.	.	.
.	.	a-	a-	.	.	.	.	.	.
4-IIIg	A:5/6	-no-	-no-	.	.	114.69	.	voice	4A- 4cc 4ee-
.	.	-ther	-ther	.	.	.	.	.	.
4ivc	B:5/5	thing	thing	.	.	115.123	.	voice	4b 4dd 4F#
=67	=67	=67	=67	=67	=67	=67	=67	=67	=67
1i	F#:min	co-	co-	.	.	115.556	.	voice	1F# 1a 1cc#
.	.	-min'	-min'	.	.	.	.	.	.
.	.	.	.	.	.	.	.	.	.
.	.	.	.	.	.	.	.	.	.
=68	=68	=68	=68	=68	=68	=68	=68	=68	=68
2i	F#:min	.	.	.	.	117.286	.	voice	1F# 1a 1cc#
4-III	A:5	.	.	.	.	118.152	.	voice	4A- 4cc 4ee-
4iv	B:5	.	.	.	.	118.584	.	voice	4B 4dd 4ff#
=69	=69	=69	=69	=69	=69	=69	=69	=69	=69
1i	F#:min	.	.	.	.	119.017	newline	voice	1F# 1a 1cc#
=70	=70	=70	=70	=70	=70	=70	=70	=70	=70
2i	F#:min	.	.	.	.	120.762	.	voice	2F# 2a 2cc#
.	.	You	You	.	.	.	.	.	.
.	.	got	got	.	.	.	.	.	.
.	.	a-	a-	.	.	.	.	.	.
4-IIIg	A:5/6	-no-	-no-	.	.	121.635	.	voice	4A- 4cc 4ee-
.	.	-ther	-ther	.	.	.	.	.	.
4ivc	B:5/5	thing	thing	.	.	122.071	.	voice	4b 4dd 4F#
=71	=71	=71	=71	=71	=71	=71	=71	=71	=71
1i	F#:min	co-	co-	.	.	122.507	.	voice	1F# 1a 1cc#
.	.	-min'	-min'	.	.	.	.	.	.
.	.	.	.	.	.	.	.	.	.
.	.	.	.	.	.	.	.	.	.
=72	=72	=72	=72	=72	=72	=72	=72	=72	=72
2i	F#:min	.	.	.	.	124.252	.	voice	1F# 1a 1cc#
4-III	A:5	.	.	.	.	125.125	.	voice	4A- 4cc 4ee-
4iv	B:5	.	.	.	.	125.561	.	voice	4B 4dd 4ff#
=73	=73	=73	=73	=73	=73	=73	=73	=73	=73
*>Letter>E	*>Letter>E	*>Letter>E	*>Letter>E	*>Letter>E	*>Letter>E	*>Letter>E	*>Letter>E	*>Letter>E	*>Letter>E
*>Label>Bridge	*>Label>Bridge	*>Label>Bridge	*>Label>Bridge	*>Label>Bridge	*>Label>Bridge	*>Label>Bridge	*>Label>Bridge	*>Label>Bridge	*>Label>Bridge
1iv7	B:min7	In	.	.	.	125.998	newline	voice	1B 1dd 1ff# 1aa
.	.	this	.	.	.	.	.	.	.
.	.	world	.	.	.	.	.	.	.
.	.	we're	.	.	.	.	.	.	.
=74	=74	=74	=74	=74	=74	=74	=74	=74	=74
1-VIc	D:maj/5	liv-	.	.	.	127.716	.	voice	1d- 1f 1A-
.	.	-ing	.	.	.	.	.	.	.
.	.	in	.	.	.	.	.	.	.
.	.	we	.	.	.	.	.	.	.
.	.	had	.	.	.	.	.	.	.
.	.	_	.	.	.	.	.	.	.
=75	=75	=75	=75	=75	=75	=75	=75	=75	=75
1-III	A:maj	_	.	.	.	129.434	.	voice	1A- 1cc 1ee-
.	.	our	.	.	.	.	.	.	.
.	.	share	.	.	.	.	.	.	.
.	.	_	.	.	.	.	.	.	.
.	.	_	.	.	.	.	.	.	.
.	.	of	.	.	.	.	.	.	.
.	.	so-	.	.	(J	.	.	.	.
=76	=76	=76	=76	=76	=76	=76	=76	=76	=76
1I	F#:maj	_	.	.	.	131.153	.	voice	1F# 1a# 1cc#
.	.	-rrow	.	.	j)	.	.	.	.
.	.	.	.	.	.	.	.	.	.
.	.	.	.	.	.	.	.	.	.
.	.	An-	.	.	.	.	.	.	.
=77	=77	=77	=77	=77	=77	=77	=77	=77	=77
1iv7	B:min7	_	.	.	.	132.871	newline	voice	1B 1dd 1ff# 1aa
.	.	_	.	.	.	.	.	.	.
.	.	-swer	.	.	.	.	.	.	.
.	.	now	.	.	.	.	.	.	.
.	.	is	.	.	.	.	.	.	.
.	.	don't	.	.	.	.	.	.	.
=78	=78	=78	=78	=78	=78	=78	=78	=78	=78
1-VIc	D:maj/5	_	.	.	.	134.606	.	voice	1d- 1f 1A-
.	.	give	.	.	.	.	.	.	.
.	.	_	.	.	.	.	.	.	.
.	.	in	.	.	.	.	.	.	.
.	.	.	.	.	.	.	.	.	.
.	.	.	.	.	.	.	.	.	.
.	.	Aim	.	.	.	.	.	.	.
=79	=79	=79	=79	=79	=79	=79	=79	=79	=79
1-III	A:maj	_	.	.	.	136.34	.	voice	1A- 1cc 1ee-
.	.	for	.	.	.	.	.	.	.
.	.	a	.	.	.	.	.	.	.
.	.	new	.	.	.	.	.	.	.
.	.	to-	.	.	.	.	.	.	.
.	.	-mor-	.	.	(J	.	.	.	.
=80	=80	=80	=80	=80	=80	=80	=80	=80	=80
1v	C#:5	_	.	.	.	138.075	.	voice	1C# 1e 1g#
.	.	-row	.	.	j)	.	.	.	.
.	.	_	.	.	.	.	.	.	.
=81	=81	=81	=81	=81	=81	=81	=81	=81	=81
*>Letter>C	*>Letter>C	*>Letter>C	*>Letter>C	*>Letter>C	*>Letter>C	*>Letter>C	*>Letter>C	*>Letter>C	*>Letter>C
*>Label>Solo	*>Label>Solo	*>Label>Solo	*>Label>Solo	*>Label>Solo	*>Label>Solo	*>Label>Solo	*>Label>Solo	*>Label>Solo	*>Label>Solo
1i	F#:min	_	.	.	.	139.81	newline	guitar	1F# 1a 1cc#
.	.	_	.	.	.	.	.	.	.
=82	=82	=82	=82	=82	=82	=82	=82	=82	=82
2i	F#:min	_	.	.	.	141.523	.	guitar	2.F# 2.a 2.cc#
.	.	_	.	.	.	.	.	.	.
4-IIIg	A:5/6	.	.	.	.	142.379	.	guitar	4A- 4cc 4ee-
4ivc	B:5/5	_	.	.	.	142.808	.	guitar	4b 4dd 4F#
.	.	_	.	.	.	.	.	.	.
.	.	_	.	.	.	.	.	.	.
=83	=83	=83	=83	=83	=83	=83	=83	=83	=83
1i	F#:min	_	.	.	.	143.236	.	guitar	1F# 1a 1cc#
=84	=84	=84	=84	=84	=84	=84	=84	=84	=84
2i	F#:min	.	.	.	.	144.949	.	guitar	1F# 1a 1cc#
4-III	A:5	.	.	.	.	145.806	.	guitar	4A- 4cc 4ee-
4iv	B:5	.	.	.	.	146.234	.	guitar	4B 4dd 4ff#
=85	=85	=85	=85	=85	=85	=85	=85	=85	=85
1i	F#:min	.	.	.	.	146.662	newline	guitar	1F# 1a 1cc#
=86	=86	=86	=86	=86	=86	=86	=86	=86	=86
2i	F#:min	.	.	.	.	148.405	.	guitar	1F# 1a 1cc#
4-IIIg	A:5/6	.	.	.	.	149.276	.	guitar	4A- 4cc 4ee-
4ivc	B:5/5	.	.	.	.	149.712	.	guitar	4b 4dd 4F#
=87	=87	=87	=87	=87	=87	=87	=87	=87	=87
1i	F#:min	.	.	.	.	150.147	.	guitar	1F# 1a 1cc#
=88	=88	=88	=88	=88	=88	=88	=88	=88	=88
2i	F#:min	.	.	.	.	151.89	.	guitar	1F# 1a 1cc#
4-III	A:5	.	.	.	.	152.761	.	guitar	4A- 4cc 4ee-
4iv	B:5	.	.	.	.	153.196	.	guitar	4B 4dd 4ff#
=89	=89	=89	=89	=89	=89	=89	=89	=89	=89
*>Letter>B	*>Letter>B	*>Letter>B	*>Letter>B	*>Letter>B	*>Letter>B	*>Letter>B	*>Letter>B	*>Letter>B	*>Letter>B
*>Label>Solo	*>Label>Solo	*>Label>Solo	*>Label>Solo	*>Label>Solo	*>Label>Solo	*>Label>Solo	*>Label>Solo	*>Label>Solo	*>Label>Solo
1I	F#:maj	.	.	.	.	153.632	newline	guitar	1F# 1a# 1cc#
=90	=90	=90	=90	=90	=90	=90	=90	=90	=90
1-VIb	D:maj/3	.	.	.	.	155.351	.	guitar	1d- 1F 1a-
=91	=91	=91	=91	=91	=91	=91	=91	=91	=91
1IVc	B:maj/5	.	.	.	.	157.07	.	guitar	1b 1dd# 1F#
=92	=92	=92	=92	=92	=92	=92	=92	=92	=92
1I	F#:maj	.	.	.	.	158.79	.	guitar	1F# 1a# 1cc#
=93	=93	=93	=93	=93	=93	=93	=93	=93	=93
1I	F#:maj	.	.	.	.	160.509	newline	guitar	1F# 1a# 1cc#
=94	=94	=94	=94	=94	=94	=94	=94	=94	=94
1-VIb	D:maj/3	.	.	.	.	162.246	.	guitar	1d- 1F 1a-
=95	=95	=95	=95	=95	=95	=95	=95	=95	=95
1IVc	B:maj/5	.	.	.	.	163.982	.	guitar	1b 1dd# 1F#
=96	=96	=96	=96	=96	=96	=96	=96	=96	=96
1v	C#:5	.	.	.	.	165.719	.	guitar	1C# 1e 1g#
=97	=97	=97	=97	=97	=97	=97	=97	=97	=97
1-III	A:5	.	.	.	.	167.456	.	guitar	1A- 1cc 1ee-
.	.	.	.	.	.	.	.	.	.
.	.	.	.	.	.	.	.	.	.
.	.	Oh	.	.	.	.	.	.	.
=98	=98	=98	=98	=98	=98	=98	=98	=98	=98
*>Letter>A	*>Letter>A	*>Letter>A	*>Letter>A	*>Letter>A	*>Letter>A	*>Letter>A	*>Letter>A	*>Letter>A	*>Letter>A
*>Label>Verse	*>Label>Verse	*>Label>Verse	*>Label>Verse	*>Label>Verse	*>Label>Verse	*>Label>Verse	*>Label>Verse	*>Label>Verse	*>Label>Verse
1i	F#:5	_	.	.	.	169.192	newline	voice	1F# 1a 1cc#
.	.	so	.	.	.	.	.	.	.
.	.	hot	.	.	.	.	.	.	.
.	.	.	.	.	.	.	.	.	.
.	.	no	.	.	.	.	.	.	.
.	.	time	.	.	.	.	.	.	.
=99	=99	=99	=99	=99	=99	=99	=99	=99	=99
1i	F#:5	_	.	.	.	170.91	.	voice	1F# 1a 1cc#
.	.	to	.	.	.	.	.	.	.
.	.	take	.	.	.	.	.	.	.
.	.	a	.	.	.	.	.	.	.
.	.	rest	.	.	K	.	.	.	.
.	.	yeah	.	.	.	.	.	.	.
=100	=100	=100	=100	=100	=100	=100	=100	=100	=100
1i	F#:5	.	.	.	.	172.628	.	voice	1F# 1a 1cc#
=101	=101	=101	=101	=101	=101	=101	=101	=101	=101
1i	F#:5	.	.	.	.	174.345	.	voice	1F# 1a 1cc#
.	.	.	.	.	.	.	.	.	.
.	.	.	.	.	.	.	.	.	.
.	.	Act	.	.	.	.	.	.	.
=102	=102	=102	=102	=102	=102	=102	=102	=102	=102
1i	F#:5	_	.	.	.	176.063	newline	voice	1F# 1a 1cc#
.	.	tough	.	.	.	.	.	.	.
.	.	ain't	.	.	.	.	.	.	.
.	.	room	.	.	.	.	.	.	.
=103	=103	=103	=103	=103	=103	=103	=103	=103	=103
1i	F#:5	_	.	.	.	177.787	.	voice	1F# 1a 1cc#
.	.	for	.	.	.	.	.	.	.
.	.	se-	.	.	.	.	.	.	.
.	.	.	.	.	.	.	.	.	.
.	.	-cond	.	.	.	.	.	.	.
.	.	best	.	.	K	.	.	.	.
=104	=104	=104	=104	=104	=104	=104	=104	=104	=104
1i	F#:5	.	.	.	.	179.512	.	voice	1F# 1a 1cc#
=105	=105	=105	=105	=105	=105	=105	=105	=105	=105
1i	F#:5	.	.	.	.	181.237	.	voice	1F# 1a 1cc#
.	.	.	.	.	.	.	.	.	.
.	.	.	.	.	.	.	.	.	.
.	.	Real	.	.	.	.	.	.	.
=106	=106	=106	=106	=106	=106	=106	=106	=106	=106
1i	F#:5	_	.	.	.	182.961	newline	voice	1F# 1a 1cc#
.	.	_	.	.	.	.	.	.	.
.	.	strong	.	.	.	.	.	.	.
.	.	_	.	.	.	.	.	.	.
.	.	got	.	.	.	.	.	.	.
=107	=107	=107	=107	=107	=107	=107	=107	=107	=107
1i	F#:5	me	.	.	.	184.693	.	voice	1F# 1a 1cc#
.	.	some	.	.	.	.	.	.	.
.	.	se-	.	.	.	.	.	.	.
.	.	-cur-	.	.	.	.	.	.	.
.	.	-i-	.	.	(l	.	.	.	.
.	.	-ty	.	.	L)	.	.	.	.
=108	=108	=108	=108	=108	=108	=108	=108	=108	=108
1i	F#:5	.	.	.	.	186.426	.	voice	1F# 1a 1cc#
=109	=109	=109	=109	=109	=109	=109	=109	=109	=109
1i	F#:5	.	.	.	.	188.158	.	voice	1F# 1a 1cc#
.	.	.	.	.	.	.	.	.	.
.	.	.	.	.	.	.	.	.	.
.	.	Hey	.	.	.	.	.	.	.
=110	=110	=110	=110	=110	=110	=110	=110	=110	=110
1i	F#:5	I'm	.	.	.	189.89	newline	voice	1F# 1a 1cc#
.	.	a	.	.	.	.	.	.	.
.	.	big	.	.	.	.	.	.	.
.	.	smash	.	.	.	.	.	.	.
.	.	I'm	.	.	.	.	.	.	.
.	.	go-	.	.	.	.	.	.	.
=111	=111	=111	=111	=111	=111	=111	=111	=111	=111
1i	F#:5	_	.	.	.	191.61	.	voice	1F# 1a 1cc#
.	.	-in'	.	.	.	.	.	.	.
.	.	for	.	.	.	.	.	.	.
.	.	in-	.	.	.	.	.	.	.
.	.	.	.	.	.	.	.	.	.
.	.	-fin-	.	.	.	.	.	.	.
.	.	-i-	.	.	(l	.	.	.	.
.	.	-ty	.	.	L)	.	.	.	.
=112	=112	=112	=112	=112	=112	=112	=112	=112	=112
1i	F#:5	_	.	.	.	193.33	.	voice	1F# 1a 1cc#
.	.	yeah	.	.	.	.	.	.	.
.	.	.	.	.	.	.	.	.	.
=113	=113	=113	=113	=113	=113	=113	=113	=113	=113
1i	F#:5	.	.	.	.	195.05	.	voice	1F# 1a 1cc#
=114	=114	=114	=114	=114	=114	=114	=114	=114	=114
*>Letter>B	*>Letter>B	*>Letter>B	*>Letter>B	*>Letter>B	*>Letter>B	*>Letter>B	*>Letter>B	*>Letter>B	*>Letter>B
*>Label>Prechorus	*>Label>Prechorus	*>Label>Prechorus	*>Label>Prechorus	*>Label>Prechorus	*>Label>Prechorus	*>Label>Prechorus	*>Label>Prechorus	*>Label>Prechorus	*>Label>Prechorus
1I	F#:maj	If	.	.	.	196.77	newline	voice	1F# 1a# 1cc#
.	.	you	.	.	.	.	.	.	.
.	.	think	.	.	.	.	.	.	.
.	.	I'll	.	.	.	.	.	.	.
.	.	sit	.	.	.	.	.	.	.
.	.	a-	.	.	.	.	.	.	.
.	.	-round	.	.	.	.	.	.	.
.	.	as	.	.	.	.	.	.	.
=115	=115	=115	=115	=115	=115	=115	=115	=115	=115
1-VIb	D:maj/3	_	.	.	.	198.487	.	voice	1d- 1F 1a-
.	.	the	.	.	.	.	.	.	.
.	.	world	.	.	.	.	.	.	.
.	.	goes	.	.	.	.	.	.	.
.	.	by	.	.	E	.	.	.	.
.	.	You're	.	.	.	.	.	.	.
=116	=116	=116	=116	=116	=116	=116	=116	=116	=116
1IVc	B:maj/5	think-	.	.	.	200.203	.	voice	1b 1dd# 1F#
.	.	-in'	.	.	.	.	.	.	.
.	.	like	.	.	.	.	.	.	.
.	.	a	.	.	.	.	.	.	.
.	.	fool	.	.	.	.	.	.	.
.	.	'cause	.	.	.	.	.	.	.
.	.	it's	.	.	.	.	.	.	.
.	.	_	.	.	.	.	.	.	.
.	.	a	.	.	.	.	.	.	.
.	.	case	.	.	.	.	.	.	.
=117	=117	=117	=117	=117	=117	=117	=117	=117	=117
1I	F#:maj	_	.	.	.	201.92	.	voice	1F# 1a# 1cc#
.	.	of	.	.	.	.	.	.	.
.	.	do	.	.	.	.	.	.	.
.	.	or	.	.	.	.	.	.	.
.	.	die	.	.	E	.	.	.	.
.	.	.	.	.	.	.	.	.	.
.	.	Out	.	.	.	.	.	.	.
=118	=118	=118	=118	=118	=118	=118	=118	=118	=118
1I	F#:maj	_	.	.	.	203.636	newline	voice	1F# 1a# 1cc#
.	.	there	.	.	.	.	.	.	.
.	.	is	.	.	.	.	.	.	.
.	.	a	.	.	.	.	.	.	.
.	.	for-	.	.	.	.	.	.	.
.	.	_	.	.	.	.	.	.	.
.	.	-tune	.	.	.	.	.	.	.
.	.	wai-	.	.	.	.	.	.	.
=119	=119	=119	=119	=119	=119	=119	=119	=119	=119
1-VIb	D:maj/3	_	.	.	.	205.38	.	voice	1d- 1F 1a-
.	.	-ting	.	.	.	.	.	.	.
.	.	to	.	.	.	.	.	.	.
.	.	be	.	.	.	.	.	.	.
.	.	had	.	.	F	.	.	.	.
.	.	.	.	.	.	.	.	.	.
.	.	You	.	.	.	.	.	.	.
=120	=120	=120	=120	=120	=120	=120	=120	=120	=120
1IVc	B:maj/5	think	.	.	.	207.123	.	voice	1b 1dd# 1F#
.	.	I'll	.	.	.	.	.	.	.
.	.	let	.	.	.	.	.	.	.
.	.	it	.	.	.	.	.	.	.
.	.	go	.	.	.	.	.	.	.
.	.	you're	.	.	.	.	.	.	.
.	.	mad	.	.	F	.	.	.	.
=121	=121	=121	=121	=121	=121	=121	=121	=121	=121
1v	C#:5	_	.	.	.	208.866	.	voice	1C# 1e 1g#
.	.	You	.	.	.	.	.	.	.
.	.	got	.	.	.	.	.	.	.
.	.	a-	.	.	.	.	.	.	.
.	.	-no-	.	.	.	.	.	.	.
.	.	-ther	.	.	.	.	.	.	.
.	.	thing	.	.	.	.	.	.	.
=122	=122	=122	=122	=122	=122	=122	=122	=122	=122
*>Letter>C	*>Letter>C	*>Letter>C	*>Letter>C	*>Letter>C	*>Letter>C	*>Letter>C	*>Letter>C	*>Letter>C	*>Letter>C
*>Label>Chorus	*>Label>Chorus	*>Label>Chorus	*>Label>Chorus	*>Label>Chorus	*>Label>Chorus	*>Label>Chorus	*>Label>Chorus	*>Label>Chorus	*>Label>Chorus
1i	F#:min	co-	.	.	.	210.61	newline	voice	1F# 1a 1cc#
.	.	-min'	.	.	.	.	.	.	.
.	.	.	.	.	.	.	.	.	.
.	.	.	.	.	.	.	.	.	.
=123	=123	=123	=123	=123	=123	=123	=123	=123	=123
2i	F#:min	.	.	.	.	212.334	.	voice	2F# 2a 2cc#
.	.	You	You	.	.	.	.	.	.
.	.	got	got	.	.	.	.	.	.
.	.	a-	a-	.	.	.	.	.	.
4-IIIg	A:5/6	-no-	-no-	.	.	213.196	.	voice	4A- 4cc 4ee-
.	.	-ther	-ther	.	.	.	.	.	.
4ivc	B:5/5	thing	thing	.	.	213.627	.	voice	4b 4dd 4F#
=124	=124	=124	=124	=124	=124	=124	=124	=124	=124
1i	F#:min	co-	co-	.	.	214.058	.	voice	1F# 1a 1cc#
.	.	-min'	-min'	.	.	.	.	.	.
.	.	.	.	.	.	.	.	.	.
.	.	.	.	.	.	.	.	.	.
=125	=125	=125	=125	=125	=125	=125	=125	=125	=125
2i	F#:min	.	.	.	.	215.781	.	voice	1F# 1a 1cc#
4-III	A:5	.	.	.	.	216.643	.	voice	4A- 4cc 4ee-
4iv	B:5	.	.	.	.	217.074	.	voice	4B 4dd 4ff#
=126	=126	=126	=126	=126	=126	=126	=126	=126	=126
1i	F#:min	.	.	.	.	217.505	newline	voice	1F# 1a 1cc#
=127	=127	=127	=127	=127	=127	=127	=127	=127	=127
2i	F#:min	.	.	.	.	219.228	.	voice	2F# 2a 2cc#
.	.	You	You	.	.	.	.	.	.
.	.	got	got	.	.	.	.	.	.
.	.	a-	a-	.	.	.	.	.	.
4-IIIg	A:5/6	-no-	-no-	.	.	220.09	.	voice	4A- 4cc 4ee-
.	.	-ther	-ther	.	.	.	.	.	.
4ivc	B:5/5	thing	thing	.	.	220.521	.	voice	4b 4dd 4F#
=128	=128	=128	=128	=128	=128	=128	=128	=128	=128
1i	F#:min	co-	co-	.	.	220.951	.	voice	1F# 1a 1cc#
.	.	-min'	-min'	.	.	.	.	.	.
.	.	.	.	.	.	.	.	.	.
.	.	.	.	.	.	.	.	.	.
=129	=129	=129	=129	=129	=129	=129	=129	=129	=129
2i	F#:min	.	.	.	.	222.674	.	voice	2F# 2a 2cc#
.	.	You	You	.	.	.	.	.	.
.	.	got	got	.	.	.	.	.	.
.	.	a-	a-	.	.	.	.	.	.
4-III	A:5	-no-	-no-	.	.	223.536	.	voice	4A- 4cc 4ee-
.	.	-ther	-ther	.	.	.	.	.	.
4iv	B:5	thing	thing	.	.	223.967	.	voice	4B 4dd 4ff#
=130	=130	=130	=130	=130	=130	=130	=130	=130	=130
*>Letter>C	*>Letter>C	*>Letter>C	*>Letter>C	*>Letter>C	*>Letter>C	*>Letter>C	*>Letter>C	*>Letter>C	*>Letter>C
*>Label>Instrumental	*>Label>Instrumental	*>Label>Instrumental	*>Label>Instrumental	*>Label>Instrumental	*>Label>Instrumental	*>Label>Instrumental	*>Label>Instrumental	*>Label>Instrumental	*>Label>Instrumental
1i	F#:min	.	.	.	.	224.397	newline	voice	1F# 1a 1cc#
=131	=131	=131	=131	=131	=131	=131	=131	=131	=131
2i	F#:min	.	.	.	.	226.135	.	voice	1F# 1a 1cc#
4-III	A:5	.	.	.	.	227.004	.	voice	4A- 4cc 4ee-
4iv	B:5	.	.	.	.	227.438	.	voice	4B 4dd 4ff#
=132	=132	=132	=132	=132	=132	=132	=132	=132	=132
1i	F#:min	.	.	.	.	227.872	.	voice	1F# 1a 1cc#
=133	=133	=133	=133	=133	=133	=133	=133	=133	=133
2i	F#:min	.	.	.	.	229.61	.	voice	1F# 1a 1cc#
4-III	A:5	.	.	.	.	230.479	.	voice	4A- 4cc 4ee-
4iv	B:5	.	.	.	.	230.913	.	voice	4B 4dd 4ff#
=134	=134	=134	=134	=134	=134	=134	=134	=134	=134
1i	F#:min	.	.	.	.	231.348	newline	voice	1F# 1a 1cc#
=135	=135	=135	=135	=135	=135	=135	=135	=135	=135
2i	F#:min	.	.	.	.	233.084	.	voice	1F# 1a 1cc#
4-III	A:5	.	.	.	.	233.952	.	voice	4A- 4cc 4ee-
4iv	B:5	.	.	.	.	234.386	.	voice	4B 4dd 4ff#
=136	=136	=136	=136	=136	=136	=136	=136	=136	=136
1i	F#:min	.	.	.	.	234.82	.	voice	1F# 1a 1cc#
=137	=137	=137	=137	=137	=137	=137	=137	=137	=137
2i	F#:min	.	.	.	.	236.556	.	voice	2F# 2a 2cc#
4-III	A:5	Com-	.	.	.	237.424	.	voice	4A- 4cc 4ee-
.	.	-in'	.	.	.	.	.	.	.
4iv	B:5	to	.	.	.	237.858	.	voice	4B 4dd 4ff#
.	.	you	.	.	.	.	.	.	.
=138	=138	=138	=138	=138	=138	=138	=138	=138	=138
*>Letter>E	*>Letter>E	*>Letter>E	*>Letter>E	*>Letter>E	*>Letter>E	*>Letter>E	*>Letter>E	*>Letter>E	*>Letter>E
*>Label>Outro	*>Label>Outro	*>Label>Outro	*>Label>Outro	*>Label>Outro	*>Label>Outro	*>Label>Outro	*>Label>Outro	*>Label>Outro	*>Label>Outro
1i	F#:sus4(b7)	_	.	.	.	238.292	newline	voice	1F# 1a 1cc#
.	.	.	.	.	.	.	.	.	.
.	.	.	.	.	.	.	.	.	.
=139	=139	=139	=139	=139	=139	=139	=139	=139	=139
1IVc	B:maj/5	.	.	.	.	240.042	.	voice	1b 1dd# 1F#
.	.	.	You	.	.	.	.	.	.
.	.	.	got	.	.	.	.	.	.
.	.	.	a-	.	.	.	.	.	.
.	.	.	-no-	.	.	.	.	.	.
.	.	.	-ther	.	.	.	.	.	.
.	.	.	thing	.	.	.	.	.	.
=140	=140	=140	=140	=140	=140	=140	=140	=140	=140
1i	F#:5	.	co-	.	.	241.792	.	voice	1F# 1a 1cc#
.	.	.	-min'	.	.	.	.	.	.
.	.	.	.	.	.	.	.	.	.
.	.	Hey	.	.	.	.	.	.	.
.	.	.	.	.	.	.	.	.	.
.	.	uh	.	.	.	.	.	.	.
.	.	.	.	.	.	.	.	.	.
=141	=141	=141	=141	=141	=141	=141	=141	=141	=141
2I	F#:maj	.	.	.	.	243.541	.	voice	2F# 2a# 2cc#
.	.	It's	.	.	.	.	.	.	.
.	.	a	.	.	.	.	.	.	.
4-III	A:maj	com-	.	.	.	244.416	.	voice	4A- 4cc 4ee-
.	.	-in'	.	.	.	.	.	.	.
4iv	B:5	now	.	.	.	244.853	.	voice	4B 4dd 4ff#
=142	=142	=142	=142	=142	=142	=142	=142	=142	=142
1i	F#:sus4(b7)	.	.	.	.	245.291	newline	voice	1F# 1a 1cc#
.	.	.	.	.	.	.	.	.	.
.	.	Oh	.	.	.	.	.	.	.
.	.	_	.	.	.	.	.	.	.
.	.	.	.	.	.	.	.	.	.
=143	=143	=143	=143	=143	=143	=143	=143	=143	=143
1IVc	B:maj/5	.	.	.	.	247.02	.	voice	1b 1dd# 1F#
.	.	.	You	.	.	.	.	.	.
.	.	.	got	.	.	.	.	.	.
.	.	Oh	a-	.	.	.	.	.	.
.	.	.	-no-	.	.	.	.	.	.
.	.	.	-ther	.	.	.	.	.	.
.	.	_	thing	.	.	.	.	.	.
.	.	.	.	.	.	.	.	.	.
=144	=144	=144	=144	=144	=144	=144	=144	=144	=144
1i	F#:5	.	co-	.	.	248.749	.	voice	1F# 1a 1cc#
.	.	.	-min'	.	.	.	.	.	.
.	.	It's	.	.	.	.	.	.	.
.	.	a	.	.	.	.	.	.	.
.	.	com-	.	.	.	.	.	.	.
.	.	-in'	.	.	.	.	.	.	.
.	.	down	.	.	.	.	.	.	.
.	.	_	.	.	.	.	.	.	.
=145	=145	=145	=145	=145	=145	=145	=145	=145	=145
2I	F#:maj	_	.	.	.	250.479	.	voice	2.F# 2.a# 2.cc#
4-III	A:maj	.	.	.	.	251.343	.	voice	4A- 4cc 4ee-
4iv	B:5	_	.	.	.	251.776	.	voice	4B 4dd 4ff#
=146	=146	=146	=146	=146	=146	=146	=146	=146	=146
1i	F#:sus4(b7)	.	.	Oh	.	252.208	newline	voice	1F# 1a 1cc#
.	.	.	.	.	.	.	.	.	.
.	.	.	.	we	.	.	.	.	.
=147	=147	=147	=147	=147	=147	=147	=147	=147	=147
1IVc	B:maj/5	.	.	_	.	253.947	.	voice	1b 1dd# 1F#
.	.	.	You	.	.	.	.	.	.
.	.	.	got	.	.	.	.	.	.
.	.	.	a-	.	.	.	.	.	.
.	.	.	-no-	.	.	.	.	.	.
.	.	.	-ther	.	.	.	.	.	.
.	.	.	thing	.	.	.	.	.	.
=148	=148	=148	=148	=148	=148	=148	=148	=148	=148
1i	F#:5	.	co-	come	.	255.687	.	voice	1F# 1a 1cc#
.	.	.	-min'	.	.	.	.	.	.
.	.	.	.	.	.	.	.	.	.
.	.	.	.	.	.	.	.	.	.
=149	=149	=149	=149	=149	=149	=149	=149	=149	=149
2I	F#:maj	.	.	.	.	257.426	.	voice	1F# 1a# 1cc#
4-III	A:maj	.	.	.	.	258.296	.	voice	4A- 4cc 4ee-
4iv	B:5	.	.	.	.	258.731	.	voice	4B 4dd 4ff#
=150	=150	=150	=150	=150	=150	=150	=150	=150	=150
1i	F#:sus4(b7)	.	.	Oh	.	259.166	newline	voice	1F# 1a 1cc#
.	.	.	.	.	.	.	.	.	.
.	.	.	.	we	.	.	.	.	.
=151	=151	=151	=151	=151	=151	=151	=151	=151	=151
1IVc	B:maj/5	.	.	_	.	260.898	.	voice	1b 1dd# 1F#
.	.	.	You	.	.	.	.	.	.
.	.	.	got	.	.	.	.	.	.
.	.	.	a-	.	.	.	.	.	.
.	.	.	-no-	.	.	.	.	.	.
.	.	.	-ther	.	.	.	.	.	.
.	.	.	thing	.	.	.	.	.	.
=152	=152	=152	=152	=152	=152	=152	=152	=152	=152
1i	F#:5	.	co-	come	.	262.63	.	voice	1F# 1a 1cc#
.	.	.	-min'	.	.	.	.	.	.
.	.	.	.	.	.	.	.	.	.
.	.	.	.	.	.	.	.	.	.
=153	=153	=153	=153	=153	=153	=153	=153	=153	=153
2I	F#:maj	.	.	.	.	264.363	.	voice	1F# 1a# 1cc#
4-III	A:maj	.	.	.	.	265.229	.	voice	4A- 4cc 4ee-
4iv	B:5	.	.	.	.	265.662	.	voice	4B 4dd 4ff#
=154	=154	=154	=154	=154	=154	=154	=154	=154	=154
1i	F#:sus4(b7)	.	.	Oh	.	266.095	newline	voice	1F# 1a 1cc#
.	.	Oh	.	.	.	.	.	.	.
.	.	yeah	.	.	.	.	.	.	.
.	.	.	.	.	.	.	.	.	.
.	.	.	.	.	.	.	.	.	.
.	.	oh	.	we	.	.	.	.	.
=155	=155	=155	=155	=155	=155	=155	=155	=155	=155
1IVc	B:maj/5	_	.	_	.	267.826	.	voice	1b 1dd# 1F#
.	.	yeah	You	.	.	.	.	.	.
.	.	.	got	.	.	.	.	.	.
.	.	.	a-	.	.	.	.	.	.
.	.	.	-no-	.	.	.	.	.	.
.	.	.	-ther	.	.	.	.	.	.
.	.	.	thing	.	.	.	.	.	.
=156	=156	=156	=156	=156	=156	=156	=156	=156	=156
1i	F#:5	.	co-	come	.	269.556	.	voice	1F# 1a 1cc#
.	.	.	-min'	.	.	.	.	.	.
.	.	It's	.	.	.	.	.	.	.
.	.	co-	.	.	.	.	.	.	.
.	.	-min'	.	.	.	.	.	.	.
.	.	.	.	.	.	.	.	.	.
.	.	.	.	.	.	.	.	.	.
=157	=157	=157	=157	=157	=157	=157	=157	=157	=157
2I	F#:maj	.	.	.	.	271.286	.	voice	2F# 2a# 2cc#
.	.	It's	.	.	.	.	.	.	.
.	.	a	.	.	.	.	.	.	.
4-III	A:maj	com-	.	.	.	272.152	.	voice	4A- 4cc 4ee-
.	.	-in'	.	.	.	.	.	.	.
4iv	B:5	to	.	.	.	272.584	.	voice	4B 4dd 4ff#
.	.	ya	.	.	.	.	.	.	.
=158	=158	=158	=158	=158	=158	=158	=158	=158	=158
1i	F#:sus4(b7)	.	.	Oh	.	273.017	newline	voice	1F# 1a 1cc#
.	.	Can	.	.	.	.	.	.	.
.	.	you	.	.	.	.	.	.	.
.	.	feel	.	.	.	.	.	.	.
.	.	it?	.	.	.	.	.	.	.
.	.	.	.	we	.	.	.	.	.
=159	=159	=159	=159	=159	=159	=159	=159	=159	=159
1IVc	B:maj/5	.	.	_	.	274.747	.	voice	1b 1dd# 1F#
.	.	.	You	.	.	.	.	.	.
.	.	Can	got	.	.	.	.	.	.
.	.	you	a-	.	.	.	.	.	.
.	.	feel	-no-	.	.	.	.	.	.
.	.	.	-ther	.	.	.	.	.	.
.	.	it?	thing	.	.	.	.	.	.
.	.	.	.	.	.	.	.	.	.
=160	=160	=160	=160	=160	=160	=160	=160	=160	=160
1i	F#:5	.	co-	.	.	276.476	.	voice	1F# 1a 1cc#
.	.	.	-min'	.	.	.	.	.	.
.	.	.	.	.	.	.	.	.	.
.	.	It's	.	.	.	.	.	.	.
.	.	com-	.	.	.	.	.	.	.
.	.	-in'	.	.	.	.	.	.	.
.	.	on	.	.	.	.	.	.	.
.	.	.	.	.	.	.	.	.	.
=161	=161	=161	=161	=161	=161	=161	=161	=161	=161
2I	F#:maj	.	.	.	.	278.206	.	voice	2F# 2a# 2cc#
.	.	It's	.	.	.	.	.	.	.
.	.	come	.	.	.	.	.	.	.
.	.	a?	.	.	.	.	.	.	.
4-III	A:maj	_	.	.	.	279.071	.	voice	4A- 4cc 4ee-
4iv	B:5	??	.	.	.	279.504	.	voice	4B 4dd 4ff#
.	.	_	.	.	.	.	.	.	.
=162	=162	=162	=162	=162	=162	=162	=162	=162	=162
*>Label>>Fadeout	*>Label>>Fadeout	*>Label>>Fadeout	*>Label>>Fadeout	*>Label>>Fadeout	*>Label>>Fadeout	*>Label>>Fadeout	*>Label>>Fadeout	*>Label>>Fadeout	*>Label>>Fadeout
1i	F#:sus4(b7)	_?	.	Oh	.	279.936	newline	voice	1F# 1a 1cc#
.	.	_	.	.	.	.	.	.	.
.	.	??	.	.	.	.	.	.	.
.	.	_	.	.	.	.	.	.	.
.	.	.	.	.	.	.	.	.	.
.	.	??	.	we	.	.	.	.	.
=163	=163	=163	=163	=163	=163	=163	=163	=163	=163
1IVc	B:maj/5	_	.	_	.	281.672	.	voice	1b 1dd# 1F#
.	.	_	You	.	.	.	.	.	.
.	.	??	got	.	.	.	.	.	.
.	.	.	a-	.	.	.	.	.	.
.	.	_	-no-	.	.	.	.	.	.
.	.	.	-ther	.	.	.	.	.	.
.	.	.	thing	.	.	.	.	.	.
=164	=164	=164	=164	=164	=164	=164	=164	=164	=164
1i	F#:5	com-	co-	come	.	283.408	.	voice	1F# 1a 1cc#
.	.	-in'	-min'	.	.	.	.	.	.
.	.	to	.	.	.	.	.	.	.
.	.	you	.	.	.	.	.	.	.
.	.	.	.	.	.	.	.	.	.
.	.	.	.	.	.	.	.	.	.
.	.	.	.	.	.	.	.	.	.
=165	=165	=165	=165	=165	=165	=165	=165	=165	=165
2I	F#:maj	.	.	.	.	285.144	.	voice	2F# 2a# 2cc#
.	.	com-	.	.	.	.	.	.	.
.	.	-in'	.	.	.	.	.	.	.
.	.	to	.	.	.	.	.	.	.
4-III	A:maj	you	.	.	.	286.012	.	voice	4A- 4cc 4ee-
4iv	B:5	.	.	.	.	286.446	.	voice	4B 4dd 4ff#
=166	=166	=166	=166	=166	=166	=166	=166	=166	=166
1i	F#:sus4(b7)	.	.	Oh	.	286.88	newline	voice	1F# 1a 1cc#
.	.	al-	.	.	.	.	.	.	.
.	.	-right	.	.	.	.	.	.	.
.	.	.	.	.	.	.	.	.	.
.	.	.	.	we	.	.	.	.	.
=167	=167	=167	=167	=167	=167	=167	=167	=167	=167
1IVc	B:maj/5	.	.	_	.	288.598	.	voice	1b 1dd# 1F#
.	.	.	You	.	.	.	.	.	.
.	.	.	got	.	.	.	.	.	.
.	.	.	a-	.	.	.	.	.	.
.	.	.	-no-	.	.	.	.	.	.
.	.	.	-ther	.	.	.	.	.	.
.	.	.	thing	.	.	.	.	.	.
=168	=168	=168	=168	=168	=168	=168	=168	=168	=168
1i	F#:5	.	co-	come	.	290.316	.	voice	1F# 1a 1cc#
.	.	.	-min'	.	.	.	.	.	.
.	.	.	.	.	.	.	.	.	.
.	.	.	.	.	.	.	.	.	.
=169	=169	=169	=169	=169	=169	=169	=169	=169	=169
2I	F#:maj	.	.	.	.	292.033	.	voice	1F# 1a# 1cc#
4-III	A:maj	.	.	.	.	292.892	.	voice	4A- 4cc 4ee-
4iv	B:5	.	.	.	.	293.322	.	voice	4B 4dd 4ff#
=170	=170	=170	=170	=170	=170	=170	=170	=170	=170
1i	F#:sus4(b7)	.	.	Oh	.	293.751	newline	voice	1F# 1a 1cc#
.	.	.	.	.	.	.	.	.	.
.	.	.	.	we	.	.	.	.	.
=171	=171	=171	=171	=171	=171	=171	=171	=171	=171
1IVc	B:maj/5	.	.	_	.	295.477	.	voice	1b 1dd# 1F#
.	.	.	You	.	.	.	.	.	.
.	.	.	got	.	.	.	.	.	.
.	.	.	a-	.	.	.	.	.	.
.	.	.	-no-	.	.	.	.	.	.
.	.	.	-ther	.	.	.	.	.	.
.	.	.	thing	.	.	.	.	.	.
=172	=172	=172	=172	=172	=172	=172	=172	=172	=172
1i	F#:5	.	co-	come	.	297.204	.	voice	1F# 1a 1cc#
.	.	.	-min'	.	.	.	.	.	.
.	.	.	.	.	.	.	.	.	.
.	.	.	.	.	.	.	.	.	.
=173	=173	=173	=173	=173	=173	=173	=173	=173	=173
2I	F#:maj	.	.	.	.	298.93	.	voice	1F# 1a# 1cc#
4-III	A:maj	.	.	.	.	299.794	.	voice	4A- 4cc 4ee-
4iv	B:5	.	.	.	.	300.225	.	voice	4B 4dd 4ff#
=174	=174	=174	=174	=174	=174	=174	=174	=174	=174
1i	F#:sus4(b7)	.	.	Oh	.	300.657	newline	voice	1F# 1a 1cc#
.	.	.	.	.	.	.	.	.	.
.	.	.	.	we	.	.	.	.	.
=175	=175	=175	=175	=175	=175	=175	=175	=175	=175
1IVc	B:maj/5	.	.	_	.	301.644	.	voice	1b 1dd# 1F#
.	.	.	You	.	.	.	.	.	.
.	.	.	got	.	.	.	.	.	.
.	.	.	a-	.	.	.	.	.	.
.	.	.	-no-	.	.	.	.	.	.
.	.	.	-ther	.	.	.	.	.	.
.	.	.	thing	.	.	.	.	.	.
=176	=176	=176	=176	=176	=176	=176	=176	=176	=176
1i	F#:5	.	co-	come	.	302.63	.	voice	1F# 1a 1cc#
.	.	.	-min'	.	.	.	.	.	.
.	.	.	.	.	.	.	.	.	.
.	.	.	.	.	.	.	.	.	.
=177	=177	=177	=177	=177	=177	=177	=177	=177	=177
2I	F#:maj	.	.	.	.	303.617	.	voice	1F# 1a# 1cc#
4-III	A:maj	.	.	.	.	304.111	.	voice	4A- 4cc 4ee-
4iv	B:5	.	.	.	.	304.357	.	voice	4B 4dd 4ff#
1r;	N	.	.	.	.	304.604	.	r	1r;
1r;	N	.	.	.	.	310.753	.	r	1r;
*-	*-	*-	*-	*-	*-	*-	*-	*-	*-
!!!BillboardChartDate: 1982/11/27
!!!BillboardPeak: 67
!!!BillboardWeeksOnChart: 7
!!!COC: Judas Priest
!!!ENC: Nathaniel Condit-Schultz
!!!EST: Awating manual error checking and editing.
!!!OTL: You've Got Another Thing Comin'
!!!RDF**harte: Chris Harte's syntax, used by MIREX
!!!RDF**harmony: **recip + pitch class of root + harmonic quality
!!!RDF**leadinstrument: original McGill primary instrumentation annotation
!!!RDF**phrase: newline = linebreak in original McGill transcription
!!!RDF**timestamp: McGill audio timestamp in seconds
!!!RDT: 2017/01/12/
!!!SampleActualRank: 67
!!!SampleID#: 0861
!!!SampleTargetRank: 68
!!!MBID: c32da0c6-49ea-4a29-9241-7680e2e0afc5
